X: 4821
T: Boys Of The Town, The
R: jig
M: 6/8
K: Gmajor
D|DGG Bdd|edB d2B|DGG Bdd|edB AFD|
DGG Bdd|edB gfe|dBG AGA|BGG G2:|
B|def gfg|agf edB|def gfg|agf e2d|
def gfg|agf gfe|dBG AGA|BGG G2:|

